file/sophos.svg

<svg clip-rule="evenodd" fill-rule="evenodd" stroke-linejoin="round" stroke-miterlimit="1.41421" viewBox="0 0 560 400" xmlns="http://www.w3.org/2000/svg"><path d="m28.8 168.5h26.2c4.6 0 7.1-.4 8.5-1.4 1.8-1.1 2.8-3 2.8-5.3 0-2.7-1.4-5-3.7-6.1-1.2-.7-3.5-1-6.2-1h-10.6c-6.9 0-11.4-1.2-14.4-3.8-3.5-3-5.4-7.7-5.4-12.7 0-7.3 4.1-13.7 10-15.8 2.6-1 5.6-1.2 12.3-1.2h28.5v10.3h-25.7c-5.4.1-5.9.1-7.7.5-2.4.6-3.9 2.8-3.9 5.9 0 2.6 1.2 4.7 3.3 5.6 1.7.8 3.1.9 7.2.9h9.2c8.5 0 13 1.3 16.4 4.7 2.6 2.6 4.3 7.7 4.3 12.7 0 6.1-2.8 11.8-7.3 14.6-2.8 1.8-6.5 2.3-15 2.3h-28.8zm84-47.7c-8.1 0-15.2 2-19.7 5.6-5.7 4.5-8.7 12.9-8.7 23.9 0 7.7 1.6 14 5 18.7 4.5 6.5 13.2 10.1 24.2 10.1 7.8 0 14.3-1.9 18.6-5.4 5.7-4.6 8.9-12.9 8.9-22.9v-1.6l-.1-1.6v-1.6l-.2-1.5-.2-1.5-.3-1.5-.3-1.4-.3-1.4-.2-.7-.2-.7-.2-.6-.2-.6-.2-.6-.2-.6-.2-.6-.3-.6-.3-.5-.3-.5-.3-.5-.3-.5-.3-.5-.3-.5-.3-.5-.3-.4c-4.3-5.8-12.5-9-22.8-9zm.1 9.8c10.3 0 14.8 6 14.8 19.5 0 13.3-4.7 19.4-14.8 19.4-10.3 0-15-6.1-15-19.6v-.6-.6-.5-.5-.5-.5-.5-.5-.5-.5l.1-.5.1-.5.1-.5.1-.5.1-.4.1-.4.1-.4.1-.4.1-.4.1-.4.1-.4.1-.4.1-.4.1-.3.1-.3.1-.3.1-.3.1-.3.1-.3.2-.3.2-.3.2-.3c2.5-3.7 6.9-5.8 12.5-5.8zm34.9-9.3v57.5h12.2v-20.1h19.7c6.6 0 9.7-.9 13-3.7 4-3.4 6.4-9 6.4-15 0-5.1-1.8-9.8-5.2-13.5-3.8-4.2-7.3-5.3-17.4-5.3h-28.7zm12.2 10.2h16.9c2 0 3.5.2 4.5.5 2.7.9 4.2 3.7 4.2 7.5 0 3.2-1 6-2.5 7.2l-.1.1-.1.1-.1.1-.1.1-.1.1-.1.1-.1.1-.2.1-.2.1-.2.1-.2.1-.2.1-.2.1h-.2l-.2.1-.2.1h-.2-.2-.2-.2-.2-.2-.2-.2-.2-.3-.3-.3-.3-.3-.3-.3-16.7zm91.4 47.3h-12.2v-23.7h-22.2v23.7h-12.2v-57.5h12.2v23.5h22.2v-23.5h12.2zm35.8-58c-8.1 0-15.2 2-19.7 5.6-5.7 4.5-8.7 12.9-8.7 23.9 0 7.7 1.6 14 5 18.7 4.5 6.5 13.2 10.1 24.2 10.1 7.8 0 14.3-1.9 18.6-5.4 5.7-4.6 8.9-12.9 8.9-22.9v-1.6l-.1-1.6-.1-1.6-.2-1.5-.1-1.5-.2-1.5-.3-1.4-.3-1.4-.2-.7-.2-.7-.2-.6-.2-.6-.2-.6-.2-.6-.2-.6-.2-.6-.3-.5-.3-.5-.3-.5-.3-.5-.3-.5-.3-.5-.3-.5-.3-.4c-4.6-5.8-12.8-9-23-9zm0 9.8c10.3 0 14.8 6 14.8 19.5 0 13.3-4.7 19.4-14.8 19.4-10.3 0-15-6.1-15-19.6v-.6-.6-.5-.5-.5-.5-.5-.5-.5-.5l.1-.5.1-.5.1-.5.1-.5.1-.4.1-.4.1-.4.1-.4.1-.4.1-.4.1-.4.1-.4.1-.4.1-.3.1-.3.1-.3.1-.3.1-.3.1-.3.2-.3.2-.3.2-.3c2.5-3.7 6.9-5.8 12.5-5.8zm35.6 37.9h26.2c4.6 0 7.1-.4 8.5-1.4 1.8-1.1 2.8-3 2.8-5.3 0-2.7-1.4-5-3.7-6.1-1.2-.7-3.4-1-6.2-1h-10.6c-6.9 0-11.4-1.2-14.4-3.8-3.4-3-5.4-7.7-5.4-12.7 0-7.3 4.1-13.7 10-15.8 2.6-1 5.6-1.2 12.3-1.2h28.5v10.3h-25.7c-5.4.1-5.9.1-7.7.5-2.4.6-3.9 2.8-3.9 5.9 0 2.6 1.2 4.7 3.3 5.6 1.7.8 3.1.9 7.2.9h9.2c8.5 0 13 1.3 16.4 4.7 2.6 2.6 4.3 7.7 4.3 12.7 0 6.1-2.8 11.8-7.3 14.6-2.8 1.8-6.5 2.3-15 2.3h-28.9z" fill="#007aff" fill-rule="nonzero" transform="matrix(1.43719 0 0 1.43719 -7.36706 -15.5073)"/></svg>

<?xml version="1.0" encoding="UTF-8" standalone="no"?>
<!DOCTYPE svg PUBLIC "-//W3C//DTD SVG 1.1//EN" "http://www.w3.org/Graphics/SVG/1.1/DTD/svg11.dtd">
<svg width="100%" height="100%" viewBox="0 0 560 400" version="1.1" xmlns="http://www.w3.org/2000/svg" xmlns:xlink="http://www.w3.org/1999/xlink" xml:space="preserve" xmlns:serif="http://www.serif.com/" style="fill-rule:evenodd;clip-rule:evenodd;stroke-linejoin:round;stroke-miterlimit:1.41421;">
    <g id="logo" transform="matrix(1.43719,0,0,1.43719,-7.36706,-15.5073)">
        <path d="M28.8,168.5L55,168.5C59.6,168.5 62.1,168.1 63.5,167.1C65.3,166 66.3,164.1 66.3,161.8C66.3,159.1 64.9,156.8 62.6,155.7C61.4,155 59.1,154.7 56.4,154.7L45.8,154.7C38.9,154.7 34.4,153.5 31.4,150.9C27.9,147.9 26,143.2 26,138.2C26,130.9 30.1,124.5 36,122.4C38.6,121.4 41.6,121.2 48.3,121.2L76.8,121.2L76.8,131.5L51.1,131.5C45.7,131.6 45.2,131.6 43.4,132C41,132.6 39.5,134.8 39.5,137.9C39.5,140.5 40.7,142.6 42.8,143.5C44.5,144.3 45.9,144.4 50,144.4L59.2,144.4C67.7,144.4 72.2,145.7 75.6,149.1C78.2,151.7 79.9,156.8 79.9,161.8C79.9,167.9 77.1,173.6 72.6,176.4C69.8,178.2 66.1,178.7 57.6,178.7L28.8,178.7L28.8,168.5ZM112.8,120.8C104.7,120.8 97.6,122.8 93.1,126.4C87.4,130.9 84.4,139.3 84.4,150.3C84.4,158 86,164.3 89.4,169C93.9,175.5 102.6,179.1 113.6,179.1C121.4,179.1 127.9,177.2 132.2,173.7C137.9,169.1 141.1,160.8 141.1,150.8L141.1,149.2L141,147.6L141,146L140.8,144.5L140.6,143L140.3,141.5L140,140.1L139.7,138.7L139.5,138L139.3,137.3L139.1,136.7L138.9,136.1L138.7,135.5L138.5,134.9L138.3,134.3L138,133.7L137.7,133.2L137.4,132.7L137.1,132.2L136.8,131.7L136.5,131.2L136.2,130.7L135.9,130.2L135.6,129.8C131.3,124 123.1,120.8 112.8,120.8ZM112.9,130.6C123.2,130.6 127.7,136.6 127.7,150.1C127.7,163.4 123,169.5 112.9,169.5C102.6,169.5 97.9,163.4 97.9,149.9L97.9,149.3L97.9,148.7L97.9,148.2L97.9,147.7L97.9,147.2L97.9,146.7L97.9,146.2L97.9,145.7L97.9,145.2L97.9,144.7L98,144.2L98.1,143.7L98.2,143.2L98.3,142.7L98.4,142.3L98.5,141.9L98.6,141.5L98.7,141.1L98.8,140.7L98.9,140.3L99,139.9L99.1,139.5L99.2,139.1L99.3,138.8L99.4,138.5L99.5,138.2L99.6,137.9L99.7,137.6L99.8,137.3L100,137L100.2,136.7L100.4,136.4C102.9,132.7 107.3,130.6 112.9,130.6ZM147.8,121.3L147.8,178.8L160,178.8L160,158.7L179.7,158.7C186.3,158.7 189.4,157.8 192.7,155C196.7,151.6 199.1,146 199.1,140C199.1,134.9 197.3,130.2 193.9,126.5C190.1,122.3 186.6,121.2 176.5,121.2L147.8,121.2L147.8,121.3ZM160,131.5L176.9,131.5C178.9,131.5 180.4,131.7 181.4,132C184.1,132.9 185.6,135.7 185.6,139.5C185.6,142.7 184.6,145.5 183.1,146.7L183,146.8L182.9,146.9L182.8,147L182.7,147.1L182.6,147.2L182.5,147.3L182.4,147.4L182.2,147.5L182,147.6L181.8,147.7L181.6,147.8L181.4,147.9L181.2,148L181,148L180.8,148.1L180.6,148.2L180.4,148.2L180.2,148.2L180,148.2L179.8,148.2L179.6,148.2L179.4,148.2L179.2,148.2L179,148.2L178.8,148.2L178.5,148.2L178.2,148.2L177.9,148.2L177.6,148.2L177.3,148.2L177,148.2L176.7,148.2L160,148.2L160,131.5ZM251.4,178.8L239.2,178.8L239.2,155.1L217,155.1L217,178.8L204.8,178.8L204.8,121.3L217,121.3L217,144.8L239.2,144.8L239.2,121.3L251.4,121.3L251.4,178.8ZM287.2,120.8C279.1,120.8 272,122.8 267.5,126.4C261.8,130.9 258.8,139.3 258.8,150.3C258.8,158 260.4,164.3 263.8,169C268.3,175.5 277,179.1 288,179.1C295.8,179.1 302.3,177.2 306.6,173.7C312.3,169.1 315.5,160.8 315.5,150.8L315.5,149.2L315.4,147.6L315.3,146L315.1,144.5L315,143L314.8,141.5L314.5,140.1L314.2,138.7L314,138L313.8,137.3L313.6,136.7L313.4,136.1L313.2,135.5L313,134.9L312.8,134.3L312.6,133.7L312.3,133.2L312,132.7L311.7,132.2L311.4,131.7L311.1,131.2L310.8,130.7L310.5,130.2L310.2,129.8C305.6,124 297.4,120.8 287.2,120.8ZM287.2,130.6C297.5,130.6 302,136.6 302,150.1C302,163.4 297.3,169.5 287.2,169.5C276.9,169.5 272.2,163.4 272.2,149.9L272.2,149.3L272.2,148.7L272.2,148.2L272.2,147.7L272.2,147.2L272.2,146.7L272.2,146.2L272.2,145.7L272.2,145.2L272.2,144.7L272.3,144.2L272.4,143.7L272.5,143.2L272.6,142.7L272.7,142.3L272.8,141.9L272.9,141.5L273,141.1L273.1,140.7L273.2,140.3L273.3,139.9L273.4,139.5L273.5,139.1L273.6,138.8L273.7,138.5L273.8,138.2L273.9,137.9L274,137.6L274.1,137.3L274.3,137L274.5,136.7L274.7,136.4C277.2,132.7 281.6,130.6 287.2,130.6ZM322.8,168.5L349,168.5C353.6,168.5 356.1,168.1 357.5,167.1C359.3,166 360.3,164.1 360.3,161.8C360.3,159.1 358.9,156.8 356.6,155.7C355.4,155 353.2,154.7 350.4,154.7L339.8,154.7C332.9,154.7 328.4,153.5 325.4,150.9C322,147.9 320,143.2 320,138.2C320,130.9 324.1,124.5 330,122.4C332.6,121.4 335.6,121.2 342.3,121.2L370.8,121.2L370.8,131.5L345.1,131.5C339.7,131.6 339.2,131.6 337.4,132C335,132.6 333.5,134.8 333.5,137.9C333.5,140.5 334.7,142.6 336.8,143.5C338.5,144.3 339.9,144.4 344,144.4L353.2,144.4C361.7,144.4 366.2,145.7 369.6,149.1C372.2,151.7 373.9,156.8 373.9,161.8C373.9,167.9 371.1,173.6 366.6,176.4C363.8,178.2 360.1,178.7 351.6,178.7L322.7,178.7L322.8,168.5Z" style="fill:rgb(0,122,255);fill-rule:nonzero;"/>
    </g>
</svg>
